X: 27781
T: Morpeth Lasses, The
R: reel
M: 4/4
K: Aminor
|:A>BcA EAAc|B>GGd BGGB|A>BcA EAAe|dBGB cAA2:|
a>gea gea2|gedg BGGB|a>gea gea2|gegB A2A2|
a>gea gea2|gedg BGGB|AcBd ceda|gegB A2A2||

